third_party/noto/noto_2/emoji_u1f48a.svg

<svg enable-background="new 0 0 128 128" version="1.1" viewBox="0 0 128 128" xmlns="http://www.w3.org/2000/svg"><path d="m74.06 115.46c11.38 11.38 30.01 11.38 41.4 0 11.38-11.38 11.38-30.01 0-41.4l-30.76-30.76-41.4 41.4 30.76 30.76z" fill="#F44336"/><path d="m84.7 43.3-30.76-30.76c-11.38-11.38-30.01-11.38-41.4 0-11.38 11.38-11.38 30.01 0 41.4l30.76 30.76 41.4-41.4z" fill="#FDD835"/><rect transform="matrix(-.7071 .7071 -.7071 -.7071 157.07 65.061)" x="35.79" y="63.56" width="58.55" height="3" fill="#C62828"/><g opacity=".65"><path d="m69.43 36.25c12.16 13.25 34.22 38.25 34.22 38.25 2.86 2.61 6.79 9.34 4.22 11.66-2.74 2.48-9.12-2.75-11.98-5.36l-46.67-43.91c-2.85-2.61-12.39-11.06-10.53-17.01 3.51-11.23 17.2 1.61 30.74 16.37z" fill="#fff"/></g></svg>

<?xml version="1.0" encoding="utf-8"?>
<!-- Generator: Adobe Illustrator 25.2.3, SVG Export Plug-In . SVG Version: 6.00 Build 0)  -->
<svg version="1.1" id="_x31__copy" xmlns="http://www.w3.org/2000/svg" xmlns:xlink="http://www.w3.org/1999/xlink" x="0px" y="0px"
	 viewBox="0 0 128 128" style="enable-background:new 0 0 128 128;" xml:space="preserve">
<g>
	<g>
		<g>
			<path style="fill:#F44336;" d="M74.06,115.46c11.38,11.38,30.01,11.38,41.4,0l0,0c11.38-11.38,11.38-30.01,0-41.4L84.7,43.3
				L43.3,84.7L74.06,115.46z"/>
			<path style="fill:#FDD835;" d="M84.7,43.3L53.94,12.54c-11.38-11.38-30.01-11.38-41.4,0l0,0c-11.38,11.38-11.38,30.01,0,41.4
				L43.3,84.7L84.7,43.3z"/>
		</g>
		
			<rect x="35.79" y="63.56" transform="matrix(-0.7071 0.7071 -0.7071 -0.7071 157.0703 65.0607)" style="fill:#C62828;" width="58.55" height="3"/>
	</g>
	<g style="opacity:0.65;">
		<path style="fill:#FFFFFF;" d="M69.43,36.25C81.59,49.5,103.65,74.5,103.65,74.5c2.86,2.61,6.79,9.34,4.22,11.66
			c-2.74,2.48-9.12-2.75-11.98-5.36L49.22,36.89c-2.85-2.61-12.39-11.06-10.53-17.01C42.2,8.65,55.89,21.49,69.43,36.25z"/>
	</g>
</g>
</svg>
